!!!!SEGMENT: pl-wtm--iii-41-946_mlynarski-emil--berceuse-slave-op-4-no-2.krn
!!!cenid: 18xx:4275
!!!COM: Młynarski, Emil
!!!COM-rismID: pe50043899
!!!CDT: 1870/07/18-1935/04/05
!!!CNT: Polish
!!!OTL: Berceuse slave, op. 4 No. 2
!!!PDT: 1915
!!!AGN:
!!!YEC: Copyright 2022 Narodowy Instytut Fryderyka Chopina (https://polishscores.org)
!!!YEM: License CC-BY-4.0 (https://creativecommons.org/licenses/by/4.0)
!!!SMS-siglum: PL-Wtm
!!!SMS-shelfmark: III.41.946
!!!SMS-shelfwork: W
!!!SMS-variant:
!!!SMS-altvar:
!!!NIFC-rismSourceID: 1001152289
!!!NIFC-rismChildID: 1001152289
!!!NIFC-islandoraID: pl-wtm:22950
!!!URL-pdf-islandora: https://repozytorium.nifc.pl/islandora/object/pl-wtm:22950/datastream/PDF/view
!!!URL-scan: https://polish.musicsources.pl/pl/lokalizacje/galeria/druki-muzyczne/17789/2 @EN{Scan on Polish Music Sources Website (Piano)} @PL{Skany w portalu Dziedzictwo Muzyki Polskiej w otwartym dostępie (Fortepian)}
!!!URL-scan: https://polish.musicsources.pl/pl/lokalizacje/galeria/druki-muzyczne/17789/6 @EN{Scan on Polish Music Sources Website (Violin)} @PL{Skany w portalu Dziedzictwo Muzyki Polskiej w otwartym dostępie (Skrzypce)}
!!!IIIF:
!!!ONB-nifc: UWAGA: Partię skrzypiec należy wpisać na podstawie głosu skrzypiec, a nie linii pomocniczej w partii fortepianu. Fortepian: skany 0002-0003; Skrzypce skan 0006
!!!AIN: 1 piano 1 violn
!!!key: F
!!!OMD:
!!!OMD-mod: Andantino
!!!filter-modern: sic -sq | shed -k -e "s/[<>]//g"  | -shed -e "s/TX(.*):t=P:/tx$1:t=P:/LG" | shed -k -e "s/LO:N:vis/LO:n:vis:/L" | shed -e "s/:rj/:RJ/L" | shed -e "s/LO:DY:(a|b|rj)/LO:dy:$1/L" | shed -e "s/-//B" | modori -m | tie -s | autostem -r | humtr -p
**kern	**kern	**dynam	**kern	**dynam
*part2	*part2	*	*part1	*
*staff3	*staff2	*	*staff1	*
*I"Piano.	*I"Piano.	*	*I"Violon.\n(Violoncello.)	*
*mI"Pianoforte	*mI"Pianoforte	*	*mI"Violino	*
*I'pf.	*I'pf.	*	*I'vl	*
*mI'pf	*mI'pf	*	*	*
*ICklav	*ICklav	*	*ICstr	*
*IGacmp	*IGacmp	*	*IGsolo	*
*Ipiano	*Ipiano	*	*Ivioln	*
*clefF4	*clefG2	*	*clefG2	*
*k[b-]	*k[b-]	*	*k[b-]	*
*F:	*F:	*	*F:	*
*M4/4	*M4/4	*	*M4/4	*
*met(c)	*met(c)	*	*met(c)	*
*mmet(c)	*mmet(c)	*	*mmet(c)	*
=1	=1	=1	=1	=1
*ped	*	*	*	*
!	!	!	!LO:MO:mod=!null:null	!
!	!	!	!LO:TX:a:B:t=Andantino.	!
(4F\ 4c	(4f/ 4a	pp	1r	.
8F\L 8c	8f/L 8a	.	.	.
8F\J 8c	8f/J 8a	.	.	.
4F\ 4c	4f/ 4a	.	.	.
8F\L 8c	8f/L 8a	.	.	.
8F\J) 8c	8f/J) 8a	.	.	.
*Xped	*	*	*	*
=2	=2	=2	=2	=2
*ped	*	*	*	*
!	!	!	!LO:TX:a:i:t=con sordino	!
(4F\ 4c	(4f/ 4a	.	4a/	p
8F\L 8c	8f/L 8a	.	8a~/L	.
*Xped	*	*	*	*
8F\J 8c	8f/J 8a	.	8a~/J	.
*ped	*	*	*	*
4F\ 4d	4f/ 4a	.	4dd\	.
8F\L 8d	8a/L	.	(4dd\	.
8F\J) 8d	8a/J)	.	.	.
*Xped	*	*	*	*
=3	=3	=3	=3	=3
!LO:TX:b:i:t=segue	!	!	!	!
(4G\ 4d	(4a/ 4b-	.	4b-\)	.
8G\L 8d	4g/ 4b-	.	8b-\L	.
8G\J 8d	.	.	8b-\J	.
4A\ 4c#X	4f/ 4b-	.	(4.a/	<
8A\L 8c#	8e/L 8a	.	.	.
8A\J) 8c#	8e/J) 8a	.	8a^/)	[[
!!LO:LB:g=original	!	!	!	!
=4	=4	=4	=4	=4
(4d\	(4f/ 4a	.	[4.ff\	>
8d\L	8f/L 8a	.	.	.
8d\J	8f/J 8a	.	8ff~\]	.
4cn\	4e/ 4a	.	(4ee\	.
8c\L	8e/L 8a	.	4a/)	]
8c\J)	8e/J) 8a	.	.	.
=5	=5	=5	=5	=5
(4B-\ 4d	(4f/ 4b-	.	(2dd\	.
8B-\L 8d	8f/L 8b-	.	.	.
8B-\J 8d	8f/J 8b-	.	.	.
4F\ 4c	4f/ 4a	.	2a/)	.
8F\L 8c	8f/L 8a	.	.	.
8F\J) 8c	8f/J) 8a	.	.	.
=6	=6	=6	=6	=6
(4C\ 4B-	(4c/ 4e	.	4g/	.
8C\L 8B-	8c/L 8e	.	(8g/L	.
8C\J 8A	8c/J 8e	.	8a/J)	.
4C\ 4G	4c/ 4e	.	(4b-~\	.
8C\L 8G	8c/L 8e	.	4b-~\)	.
8C\J) 8G	8c/J) 8e	.	.	.
!!LO:LB:g=original	!	!	!	!
=7	=7	=7	=7	=7
(4F\	(4c/ 4f	.	4a~/	<
8F\L	8c/L 8e	.	4a~/	.
8F\J	8c/J 8e	.	.	.
4F\ 4B-	4d/ 4f	<	2cc\	[
8F\L 8B-	8d/L 8f	.	.	.
8F\J) 8B-	8d/J) 8f	[[	.	.
=8	=8	=8	=8	=8
(4C\ 4B-	(4d/ 4f	pp	4g/	pp
8C\L 8B-	8d/L 8f	.	(8g/L	.
8C\J 8B-	8d/J 8f	.	8a/J)	.
4C\ 4B-	4c/ 4e	.	4g/	.
8C/L	8B-/L 8c 8e	.	(8g/L	.
8C/J)	8B-/J) 8c 8e	.	8a/J)	.
=9	=9	=9	=9	=9
(4FF/ 4C	(4B-/ 4c 4f	.	2.f/	.
8FF/L 8C	8A/L 8c	.	.	.
8FF/J 8C	8G/J 8c	.	.	.
4FF/ 4C	4A/ 4c	.	.	.
8FF/L 8C	8A/L 8c	.	4r	.
8FF/J) 8C	8A/J) 8c	.	.	.
!!LO:PB:g=original	!	!	!	!
=10	=10	=10	=10	=10
(4Bn\	(4d/ 4f	.	4g/	p
8B\L	8d/L 8f	.	(8g/L	.
8B\J	8d/J 8f	.	8a/J)	.
4B-X\	4c/ 4e	.	4g/	.
8B-\L	8c/L 8e	.	(8a/L	.
8B-\J)	8c/J) 8e	.	8b-/J)	.
=11	=11	=11	=11	=11
(4A\	(4d/ 4f#X	<	(4.cc\	<
8A\L	8d/L 8f#	.	.	.
8A\J	8d/J 8f#	.	8dd\)	.
4G\	4e-X/ 4g	.	2cc\	[
8G\L	8e-/L 8g	.	.	.
8G\J)	8e-/J) 8g	[	.	.
=12	=12	=12	=12	=12
(4Fn\	(4e-X/ 4g 4b-	.	2ee-X\	mf
8F\L	8e-/L 8g 8b-	.	.	.
8F\J	8e-/J 8g 8b-	.	.	.
4F\	4e-/ 4f 4a	.	4dd\	.
8F\L	8e-/L 8f 8a	.	4cc\	.
8F\J)	8e-/J) 8f 8a	.	.	.
!!LO:LB:g=original	!	!	!	!
=13	=13	=13	=13	=13
!	!	!	!	!LO:MO:mod=!null:null
!	!	!LO:HP:t=poco cresc.	!	!LO:HP:t=cresc
(4BB-\ 4G	(4e-X/ 4b-	<	(4..ee-X\	<
8BB-\L 8G	8e-/L 8b-	.	.	.
8BB-\J 8G	8e-/J 8b-	.	.	.
.	.	.	16dd\)	.
4BB-\ 4F	4e-/ 4b-	.	2dd\	.
8BB-\L 8F	8d/L 8b-	.	.	.
8BB-\J) 8F	8d/J) 8b-	.	.	.
=14	=14	=14	=14	=14
(4BB-X\ 4A-X	(4d/ 4f 4bn	mf	4ff\	f
8BB-\L 8A-	8d/L 8f 8b	.	(8ff\L	.
8BB-\J 8A-	8d/J 8f 8b	.	8gg\J)	.
4BB-\ 4A-	4d/ 4f 4b	.	(4ff\	.
8BB-\L 8A-	8d/L 8f 8b	.	8ee-X\L	.
8BB-\J) 8A-	8d/J) 8f 8b	.	8dd\J)	.
=15	=15	=15	=15	=15
(4BB-\ 4G	(4e-X/ 4g 4cc	.	2cc\	.
8BB-\L 8G	8e-/L 8g 8cc	.	.	.
8BB-\J 8G	8e-/J 8g 8cc	.	.	.
4BB-\ 4G	4e-/ 4g 4cc	.	2gg\	.
8BB-\L 8G	8e-/L 8g 8cc	.	.	.
8BB-\J) 8G	8e-/J) 8g 8cc	.	.	.
!!LO:LB:g=original	!	!	!	!
=16	=16	=16	=16	=16
(4BB-\ 4A-X	(4d/ 4f 4cc-X	pp	4ff\	p
8BB-\L 8A-	8d/L 8f 8cc-	.	(8ff\L	.
8BB-\J 8A-	8d/J 8f 8cc-	.	8gg\J)	.
4BBn\ 4G	4d/ 4f	.	4ff\	.
8G\L	8d/L 8f	.	8ee-X~\L	.
8G\J)	8d/J) 8f	.	8dd~\J	.
=17	=17	=17	=17	=17
(4C\ 4G	(4c/ 4e-X	<	(2ee-X\	.
8C\L 8G	8e-/L 8g	.	.	.
8C\J 8G	8e-/J 8a	[	.	.
4D\ 4G	4d/ 4b-X	>	2dd\)	.
8D\L 8G	8d/L 8b-	.	.	.
8D\J) 8G	8d/J) 8b-	]	.	.
=18	=18	=18	=18	=18
(4E-X\ 4G	(4g/	.	4cc\	.
!	!	!	!LO:SIC:s=8ccL(	!
8E-\L 8G	8g/L	.	8cc\L	.
!	!	!	!LO:SIC:s=8ddJ)	!
8E-\J 8G	8g/J	.	8dd\J	.
4E-\ 4G	4g/	.	(4cc\	.
8E-\L 8G	8g/L	.	8b-/L	.
8E-\J) 8G	8g/J)	.	8a/J)	.
!!LO:LB:g=original	!	!	!	!
=19	=19	=19	=19	=19
!	!	!LO:HP:t=dim.	!	!
(4E-X\ 4G	(4c/ 4g	>	2cc\	>
4E-\ 4A	4c/ 4g	.	.	.
4E-\ 4B-	4c/ 4g	.	2g/	]
4E-\) 4B-	4c/) 4g 4cc	.	.	.
=20	=20	=20	=20	=20
[1F#X [1A	[1d [1a	pp	2dd\	pp
.	.	.	[2a/	.
=21	=21	=21	=21	=21
8F#\] 8A]	8d/] 8a]	.	8a\L]	.
8r	8r	.	8dd^\	<
4r	4r	.	8dd^\	.
.	.	.	8ee-X^\J	[
2r	2r	.	8ff^\L	>
.	.	.	8ff^\	.
.	.	.	8ee-~\	.
.	.	.	8ff~\J	]
!!LO:PB:g=original	!	!	!	!
=22	=22	=22	=22	=22
2G\ 2d	2g/ 2b-	p	2dd\	.
2G\ 2e-X	2g/ 2a	.	4cc\	.
.	.	.	4dd\	.
=23	=23	=23	=23	=23
*^	*	*	*	*
(4d/	1G	(4g/ 4b-	<	2b-\	<
4B-/	.	4d/	.	.	.
4c/	.	4e-X/	.	(4a/	.
4B-/)	.	4d/)	[	4g/)	[
*v	*v	*	*	*	*
=24	=24	=24	=24	=24
*ped	*	*	*	*
1C:: 1G::	1d:: 1f:: 1b-::	>]	(4.ff\	.
.	.	.	8een\)	.
.	.	.	8dd\L	.
.	.	.	8cc\	>
.	.	.	(8.b-\	.
.	.	.	16a\Jk)	]
*Xped	*	*	*	*
=25	=25	=25	=25	=25
2C\ 2B-	2c/ 2en	.	4a/	.
.	.	.	2g/	.
(4C~\ 4B-	(4c~/ 4e	.	.	.
4C~\) 4B-	4c~/) 4e	.	4r	.
=26	=26	=26	=26	=26
*ped	*	*	*	*
1C:: 1G:	1d:: 1f:: 1b-::	pp	(4.ff\	pp
.	.	.	8ee\)	.
.	.	.	8dd\L	.
.	.	.	8cc\	.
.	.	.	(8.b-\	.
.	.	.	16a\Jk)	.
*Xped	*	*	*	*
!!LO:LB:g=original	!	!	!	!
=27	=27	=27	=27	=27
*	*^	*	*	*
1C 1B-	2r	1c 1e	.	4a/	.
!	!	!	!	!LO:TX:a:i:t=rit.	!
.	.	.	.	(2g/	.
!	!LO:TX:b:i:t=rit.	!	!	!	!
.	2cc/	.	.	.	.
.	.	.	.	4g#X/)	.
*	*v	*v	*	*	*
=28	=28	=28	=28	=28
!	!LO:TX:b:B:t=a tempo	!	!LO:TX:a:B:t=a tempo	!
(4F\ 4c	(4f/ 4a	.	4a/	.
8F\L 8c	8f/L 8a	.	8a~/L	.
8F\J 8c	8f/J 8a	.	8a~/J	.
4F\ 4d	4f/ 4a	.	4dd\	.
8F\L 8d	8a/L	.	(4dd\	.
8F\J) 8d	8a/J)	.	.	.
=29	=29	=29	=29	=29
(4G\ 4d	(4a/ 4b-	.	4b-\)	.
8G\L 8d	8g/L 8b-	.	8b-\L	.
8G\J 8d	8f/J 8b-	.	8b-\J	.
4A\ 4c#X	4e/ 4a	.	(4.a/	.
8A\L 8c#	8e/L 8a	.	.	.
8A\J) 8c#	8e/J) 8a	.	8a~/)	.
=30	=30	=30	=30	=30
(4d\	(4f/ 4a	.	(4.ff\	.
8d\L	8f/L 8a	.	.	.
8d\J	8f/J 8a	.	8ff~\)	.
4cn\ 4e	4f/ 4a	.	(4ee\	.
8c\L 8e	8f/L 8a	.	4a/)	.
8c\J) 8e	8f/J) 8a	.	.	.
!!LO:LB:g=original	!	!	!	!
=31	=31	=31	=31	=31
(4B-\ 4d	(4f/ 4b-	.	2dd\	.
8B-\L 8d	8f/L 8b-	.	.	.
8B-\J 8d	8f/J 8b-	.	.	.
4F\ 4c	4f/ 4a	.	2a/	.
8F\L 8c	8f/L 8a	.	.	.
8F\J) 8c	8f/J) 8a	.	.	.
=32	=32	=32	=32	=32
(4C\ 4B-	(4c/ 4e	.	4g/	.
8C\L 8B-	8c/L 8e	.	(8g/L	.
8C\J 8A	8c/J 8e	.	8a/J)	.
4C\ 4G	4c/ 4e	.	(4b-~\	.
8C\L 8G	8c/L 8e	.	4b-~\)	.
8C\J) 8G	8c/J) 8e	.	.	.
=33	=33	=33	=33	=33
(4F\	(4c/ 4f	.	4a~/	.
8F\L	8c/L 8e	.	4a~/	.
8F\J	8c/J 8e	.	.	.
4F\ 4B-	4d/ 4f	.	2cc\	.
8F\L 8B-	8d/L 8f	.	.	.
8F\J) 8B-	8d/J) 8f	.	.	.
=34	=34	=34	=34	=34
(4C\ 4B-	(4d/ 4f	pp	4g/	pp
8C\L 8B-	8d/L 8f	.	(8g/L	.
8C\J 8B-	8d/J 8f	.	8a/J)	.
4C\ 4B-	4c/ 4e	.	4g/	.
8C/L	8B-/L 8c 8e	.	(8g/L	.
8C/J)	8B-/J) 8c 8e	.	8a/J)	.
!!LO:LB:g=original	!	!	!	!
=35	=35	=35	=35	=35
*^	*^	*	*	*
!	!	!	!	!	!LO:TX:b:i:t=perdendosi	!
(>4C/	1FF	1f	4A\ 4c	.	2.f/	.
8C/L	.	.	(8A\L	.	.	.
8C/J	.	.	8A\J	.	.	.
4D/	.	.	4B-\	.	.	.
4C/)	.	.	4A\)	.	4r	.
*v	*v	*	*	*	*	*
*	*v	*v	*	*	*
=36	=36	=36	=36	=36
!	!LO:TX:b:i:t=perdendosi	!	!	!
(4C/	(4B-/ 4c 4f	.	4g/	.
8C/L	8B-/L 8c 8f	.	(8g/L	.
8C/J	8B-/J 8c 8f	.	8a/J)	.
4C/	4B-/ 4c 4e	.	4g/	.
8C/L	8B-/L 8c 8e	.	(8g/L	.
8C/J)	8B-/J) 8c 8e	.	8a/J)	.
=37	=37	=37	=37	=37
*^	*^	*	*	*
4C/	1FF	[1f	4A\ 4c	.	[1f	ppp
(4C/	.	.	(4A\	.	.	.
4D-X/	.	.	4B-\	.	.	.
4C/)	.	.	4A\)	.	.	.
*v	*v	*	*	*	*	*
=38	=38	=38	=38	=38	=38
2FF/ 2C	1f_	2A\	pp	1f_	.
2FF/ 2C	.	2A\	.	.	.
=39	=39	=39	=39	=39	=39
2.FF/ 2.C	2.f/]	2.A\	.	2.f/]	.
4r	4r	4r	.	4r	.
*	*v	*v	*	*	*
==	==	==	==	==
*-	*-	*-	*-	*-
!!!system-decoration: s1{(s2,s3)}
!!!RDF**kern: > = above
!!!RDF**kern: < = below
!!!ENC: Anastazja Marusiak
!!!END: 2022-11-29
!!!ENC: Jan Barakat
!!!END: 2022-12-05
!!!ENC-modern: Andrzej Borzym
!!!END-modern: 2023-07-10
